packages/bezier-icons/icons/wifi-off.svg

<svg width="24" height="24" viewBox="0 0 24 24" fill="none" xmlns="http://www.w3.org/2000/svg">
<path d="M3.81424 1.80718C3.42372 2.1977 3.42372 2.83087 3.81424 3.22139L19.7848 19.192C20.1753 19.5825 20.8085 19.5825 21.199 19.192C21.5895 18.8014 21.5895 18.1683 21.199 17.7777L17.5563 14.135L18.4993 13.1397C18.7082 12.9192 18.6997 12.5698 18.4682 12.3733C17.0945 11.2071 15.4016 10.4054 13.539 10.1177L11.4344 8.0131C11.6218 8.0044 11.8104 8 12 8C15.0173 8 17.7744 9.11358 19.883 10.9522C20.0911 11.1337 20.407 11.126 20.5969 10.9255L21.938 9.50989C22.1469 9.28941 22.1382 8.94053 21.9103 8.73978C19.2675 6.412 15.7986 5 12 5C10.8911 5 9.81029 5.12033 8.76993 5.34865L5.22845 1.80718C4.83793 1.41665 4.20476 1.41665 3.81424 1.80718Z" fill="#313234"/>
<path d="M2.08976 8.73978C3.14143 7.81347 4.3239 7.03218 5.6059 6.42718L7.89809 8.71937C6.49761 9.22874 5.21879 9.99148 4.11706 10.9522C3.90891 11.1337 3.59306 11.126 3.40313 10.9255L2.06201 9.50989C1.85313 9.28941 1.86185 8.94053 2.08976 8.73978Z" fill="#313234"/>
<path d="M5.53183 12.3733C6.66401 11.4121 8.01297 10.6986 9.49505 10.3163L12.181 13.0023C12.1209 13.0008 12.0605 13 12 13C10.3148 13 8.76875 13.5955 7.56068 14.5875C7.34724 14.7628 7.0318 14.7558 6.84186 14.5553L5.50074 13.1397C5.29186 12.9192 5.30029 12.5698 5.53183 12.3733Z" fill="#313234"/>
<path d="M8.93948 16.7694C8.73059 16.5489 8.73835 16.1981 8.9803 16.0145C9.81931 15.3778 10.8655 15 12 15C13.1345 15 14.1807 15.3778 15.0197 16.0145C15.2617 16.1981 15.2694 16.5489 15.0605 16.7694L12.363 19.6169C12.1658 19.825 11.8342 19.825 11.637 19.6169L8.93948 16.7694Z" fill="#313234"/>
</svg>

<svg xmlns="http://www.w3.org/2000/svg" width="24" height="24" fill="none" viewBox="0 0 24 24"><path fill="#313234" d="M3.814 1.807a1 1 0 0 0 0 1.414l15.97 15.971a1 1 0 0 0 1.415-1.414l-3.643-3.643.943-.995c.21-.22.2-.57-.03-.767a9.96 9.96 0 0 0-4.93-2.255l-2.105-2.105Q11.716 8 12 8c3.017 0 5.774 1.114 7.883 2.952a.517.517 0 0 0 .714-.027l1.341-1.415c.209-.22.2-.57-.028-.77A14.94 14.94 0 0 0 12 5c-1.109 0-2.19.12-3.23.349L5.228 1.807a1 1 0 0 0-1.414 0M2.09 8.74a15 15 0 0 1 3.516-2.313L7.898 8.72c-1.4.51-2.68 1.272-3.78 2.233a.517.517 0 0 1-.715-.027L2.062 9.51a.535.535 0 0 1 .028-.77M5.532 12.373a10 10 0 0 1 3.963-2.057l2.686 2.686L12 13a6.97 6.97 0 0 0-4.44 1.588.53.53 0 0 1-.718-.033L5.5 13.14a.527.527 0 0 1 .03-.767M8.94 16.77c-.21-.221-.202-.572.04-.755A4.98 4.98 0 0 1 12 15c1.134 0 2.18.378 3.02 1.015.242.183.25.534.04.754l-2.697 2.848a.5.5 0 0 1-.726 0z"/></svg>
